!!!COM: Frescobaldi, Girolamo
!!!CDT: 1583///-1643
!!!ONM: No. 8
!!!OTL: No. 8: Canzon Prima &agrave; 2 Bassi
!!!OPR: Canzoni da sonare a una, due, tre et quattro, libro primo
!!!PPP: Venezia
!!!PDT: 1634
!!!URL: http://icking-music-archive.org/ByComposer/Frescobaldi.html
!!!ONB: Andrea Friggi, ed.
**kern	**kern	**kern
!Basso ad Organo	!Basso Secondo	!Basso Primo
*staff3	*staff2	*staff1
*Icello	*Icello	*Icello
*clefF4	*clefF4	*clefF4
*k[]	*k[]	*k[]
*met(C)	*met(C)	*met(C)
*M4/4	*M4/4	*M4/4
*MM120	*MM120	*MM120
=1-	=1-	=1-
2D\	2D\	1r
4D\	4D\	.
4D\	4D\	.
=2	=2	=2
2C#/	2C#/	1r
2D\	2D\	.
=3	=3	=3
4.GG/	4.GG/	1r
8AA/	8AA/	.
4BB/	4BB/	.
4C/	4C/	.
=4	=4	=4
2FF/	8FF/L	1r
.	8GG/	.
.	8AA/	.
.	8BB/J	.
2C/	2C/	.
=5	=5	=5
2D\	4r	2D\
.	8D\L	.
.	8E\J	.
4D\	8F\L	4D\
.	8E\J	.
4D\	8D/L	4D\
.	16C/L	.
.	16BB/JJ	.
=6	=6	=6
2C#/	4AA/	2C#/
.	4A\	.
2D\	4.F#\	2D\
.	8D\	.
=7	=7	=7
4.GG/	2G\	4.GG/
8AA/	.	8AA/
4BB/	2r	4BB/
4C/	.	4C/
=8	=8	=8
2FF/	2r	8FF/L
.	.	8GG/
.	.	8AA/
.	.	8BB/J
[2C/	4.C/	[2C/
.	8D\	.
=9	=9	=9
4C/]	4E\	4C/]
4FF/	4F\	4FF/
2C/	8C\L	2C/
.	8D\	.
.	8E\	.
.	8F\J	.
=10	=10	=10
4G\	4G\	1r
4A\	4A\	.
2E\	2E\	.
=11	=11	=11
2AA/	2A\	4r
.	.	8A\L
.	.	8B\J
4A\	4A\	8c\L
.	.	8B\J
4A\	4A\	8A\L
.	.	16G\L
.	.	16F\JJ
=12	=12	=12
2E\	2G#\	4E\
.	.	4EE/
4.AA/	2A\	4.AA/
8BB/	.	8BB/
=13	=13	=13
4C#/	1r	4C#/
4D\	.	4D\
2GG/	.	8GG/L
.	.	8AA/
.	.	8BB/
.	.	8Cn/J
=14	=14	=14
2.D\	4.D\	2.D\
.	8E\	.
.	4F#\	.
4G\	4G\	4GG/
=15	=15	=15
2D\	8D\L	2D\
.	8E\	.
.	8F\	.
.	8G\J	.
2AA/	4A\	2r
.	4AA/	.
=16	=16	=16
2.E\	2.E\	4.E\
.	.	8F#\
.	.	4G#\
4AA/	4AA/	4A\
=17	=17	=17
2D\	2D\	8D\L
.	.	8E\
.	.	8F\
.	.	8G\J
2AA/	2AA/	4A\
.	.	4AA/
=18	=18	=18
2BB/	1r	4.BB/
.	.	8BB/
4C/	.	4C/
[4FF/	.	[4FF/
=19	=19	=19
4FF/]	1r	4FF/]
4GG/	.	4GG/
2AA/	.	2AA/
=20	=20	=20
2BB-/	1r	4.BB-/
.	.	8BB-/
2AA/	.	2AA/
=21	=21	=21
2A\	4r	2A\
.	8A\L	.
.	8B\J	.
4A\	8c\L	4A\
.	8B\J	.
4A\	8A\L	4A\
.	16G\L	.
.	16F\JJ	.
=22	=22	=22
2E\	2E\	2G#\
4.AA/	4.AA/	2A\
8BB/	8BB/	.
=23	=23	=23
4C#/	4C#/	2r
4D\	4D\	.
2AA/	2AA/	4.AA/
.	.	8BB/
=24	=24	=24
4C#/	1r	4C#/
4D\	.	4D\
2GG/	.	8GG/L
.	.	8AA/
.	.	8BB/
.	.	8Cn/J
=25	=25	=25
1D	4r	2D\
.	8D\L	.
.	8E\J	.
.	8F\L	4D\
.	8E\J	.
.	8D/L	4D\
.	16C/L	.
.	16BB/JJ	.
=26	=26	=26
2C#/	2AA/	2C#/
2D\	4r	2D\
.	4D\	.
=27	=27	=27
4BB/	4BB/	4.G\
2GG/	4.GG/	.
.	.	8A\
.	.	4B\
.	8GG/	.
4C/	4C/	4c\
=28	=28	=28
2F\	2F\	8F\L
.	.	8G\
.	.	8A\
.	.	8B\J
2C/	2C/	2c\
=29	=29	=29
2D\	4.D\	1r
.	8D\	.
2E\	2E\	.
=30	=30	=30
1AA	4r	4r
.	4AA/	8A\L
.	.	8B\J
.	4AA/	8c\L
.	.	8B\J
.	4AA/	8A\L
.	.	16G\L
.	.	16F\JJ
=31	=31	=31
2GG#/	2GG#/	4E\
.	.	4EE/
2AA/	2AA/	2AA/
=32	=32	=32
1EE	2.E\	1EE
.	4E\	.
=33	=33	=33
1AA	1AA	1AA
=34	=34	=34
*M3/2	*M3/2	*M3/2
2.D\	4.D\	1.r
.	8E\	.
.	4F\	.
4D\	4D\	.
4C/	4C/	.
4BB/	4BB/	.
=35	=35	=35
1.AA	1AA	4.A\
.	.	8B\
.	.	4c\
.	.	4A\
.	2r	4G\
.	.	4F\
=36	=36	=36
2.E\	4.E\	1E
.	8F\	.
.	4G\	.
4E\	4E\	.
4D\	4D\	2F#\
4C/	4C/	.
=37	=37	=37
1BB	1BB	4.G\
.	.	8A\
.	.	4B\
.	.	4G\
2BB/	2r	4A\
.	.	4B\
=38	=38	=38
1C	4.C/	1c
.	8D\	.
.	4E\	.
.	4C/	.
2F\	4F\	2r
.	4E\	.
=39	=39	=39
2.D\	1D	4.D\
.	.	8E\
.	.	4F\
4D\	.	4D\
4C/	2r	4C/
4BB/	.	4BB/
=40	=40	=40
2AA/	1.r	4.AA/
.	.	8BB/
2C/	.	2C/
2GG/	.	2GG/
=41	=41	=41
2C/	4.C/	1C
.	8D\	.
2E\	4E\	.
.	4E\	.
2F#\	2F#\	2r
=42	=42	=42
1G	1G	4.G\
.	.	8A\
.	.	4B\
.	.	4G\
2G\	2r	4F\
.	.	4E\
=43	=43	=43
1D	4.D\	1D
.	8E\	.
.	4F\	.
.	4D\	.
2E\	2E\	2r
=44	=44	=44
1.AA	1AA	4.A\
.	.	8B\
.	.	4c\
.	.	4A\
.	2r	4G\
.	.	4F\
=45	=45	=45
2E\	1.r	4.E\
.	.	8F\
2G\	.	4G\
.	.	4G\
2F#\	.	2F#\
=46	=46	=46
2G\	4.GG/	1G
.	8AA/	.
2BB-/	4BB-/	.
.	4BB-/	.
2AA/	2AA/	2A\
=47	=47	=47
*met(C)	*met(C)	*met(C)
*M4/4	*M4/4	*M4/4
1D	1D	1D
=48	=48	=48
1C#	1C#	1r
=49	=49	=49
1D	2.D\	1r
.	4E\	.
=50	=50	=50
2F#\	4F#\	1r
.	4G\	.
2A\	2A\	.
=51	=51	=51
1B-	1B-	1r
=52	=52	=52
1A	1A	1r
=53	=53	=53
*	*	*clefC4
2D\	2D\	8r
.	.	16d\LL
.	.	16e\JJ
.	.	8f\L
.	.	8d\J
8A\L	2r	8A/L
8F\	.	8F/
8E\	.	8E/
8D\J	.	8D/J
=54	=54	=54
2AA/	8r	2A\
.	16A\LL	.
.	16B\JJ	.
.	8c\L	.
.	8A\J	.
8E/L	8E/L	2r
8C/	8C/	.
8BB/	8BB/	.
8AA/J	8AA/J	.
=55	=55	=55
*	*	*clefF4
2BB/	8BB/L	2r
.	8GG/	.
.	8BB/	.
.	8C/J	.
2D\	2D\	8r
.	.	16D\LL
.	.	16E\JJ
.	.	8F\L
.	.	8D\J
=56	=56	=56
2AA/	4r	8AA/L
.	.	8BB/
.	4A\	8C/
.	.	8AA/J
2A\	4A\	2A\
.	4A\	.
=57	=57	=57
*	*	*clefC4
4G\	8G\L	4r
.	16A\L	.
.	16G\JJ	.
8F\L	8F\L	4d\
8E\J	8E\J	.
2D\	8D\L	4d\
.	8E\	.
.	8F\	4d\
.	8D\J	.
=58	=58	=58
2A\	2AA/	8c\L
.	.	16d\L
.	.	16c\JJ
.	.	8B\L
.	.	8A\J
4G\	2r	8G/L
.	.	8F/
4E\	.	8E/
.	.	8D/J
=59	=59	=59
4C/	4r	8E/L
.	.	16A/L
.	.	16B/JJ
2AA/	4AA/	8c\L
.	.	8A\J
.	4AA/	8e\L
.	.	8c\
4AA/	4AA/	8A\
.	.	8E\J
=60	=60	=60
2GG/	8GG/L	4.G/
.	16AA/L	.
.	16GG/JJ	.
.	8FF/L	.
.	8EE/J	8G/
2D\	2DD/	8F/L
.	.	16D/L
.	.	16E/JJ
.	.	8F/L
.	.	8D/J
=61	=61	=61
4AA/	1r	8A/L
.	.	8A/
4D\	.	8F/
.	.	8D/J
2AA/	.	2A\
=62	=62	=62
2D\	8r	2D/
.	16D\LL	.
.	16E\JJ	.
.	8F\L	.
.	8D\J	.
2F\	8AA/L	2r
.	8GG/J	.
.	4F\	.
=63	=63	=63
2E\	2E\	8r
.	.	16c\LL
.	.	16d\JJ
.	.	8e\L
.	.	8c\J
4E\	4E\	8G/L
.	.	8E/
4C/	4E\	8C/
.	.	8c/J
=64	=64	=64
4D\	8D\L	8F/L
.	16E\L	8G/
.	16D\JJ	.
8C/L	8C/L	8A/
8BB/J	8BB/J	8B/J
2AA/	8AA/L	2c\
.	8BB/	.
.	8C/	.
.	8D/J	.
=65	=65	=65
*	*	*clefF4
2E\	2E\	2r
[2AA/	8r	2A\
.	16AA/LL	.
.	16BB/JJ	.
.	8C/L	.
.	8AA/J	.
=66	=66	=66
4AA/]	8A\L	4A\
.	16A\L	.
.	16B\JJ	.
4AA/	8c\L	4A\
.	8A\J	.
8E\L	8E\L	8G\L
8C\J	8C\J	16A\L
.	.	16G\JJ
4AA/	4AA/	8F\L
.	.	8E\J
=67	=67	=67
2D\	4D\	8D\L
.	.	16D\L
.	.	16E\JJ
*	*clefC4	*
.	4d\	8F\L
.	.	8D\J
4BB-/	4d\	8BB-/L
.	.	8GG/J
4GG/	4d\	[4G\
=68	=68	=68
2G\	8B-\L	4G\]
.	16c\L	.
.	16B-\JJ	.
.	8A/L	4G\
.	8G/J	.
2F\	2d\	8F\L
.	.	16G\L
.	.	16F\JJ
.	.	8E\L
.	.	8D\J
=69	=69	=69
*	*clefF4	*
4C#/	8r	4C#/
.	16A\LL	.
.	16G\JJ	.
4D\	8F\L	4D\
.	8D\J	.
4AA/	[2A\	8r
.	.	16AA/LL
.	.	16GG/JJ
4FF/	.	8FF/L
.	.	8GG/J
=70	=70	=70
1AA	2A\]	1AA
.	2A\	.
=71	=71	=71
1D	1D	1D
=72	=72	=72
1G	1r	2r
.	.	2G\
=73	=73	=73
2.F#\	1r	2.F#\
4F#\	.	4F#\
=74	=74	=74
1G	1r	1G
=75	=75	=75
1D	1r	1D
=76	=76	=76
2AA/	1A	1AA
2A\	.	.
=77	=77	=77
1G#	2.G#\	1r
.	4G#\	.
=78	=78	=78
2A\	2A\	1r
2AA/	2AA/	.
=79	=79	=79
1BB	2.BB/	1r
.	4BB/	.
=80	=80	=80
1C	1C	2r
.	.	2c\
=81	=81	=81
1BB	1r	2.B\
.	.	4B\
=82	=82	=82
1C	1r	2c\
.	.	2C/
=83	=83	=83
1G	2r	1G
.	2G\	.
=84	=84	=84
2.F#\	2.F#\	1r
4F#\	4F#\	.
=85	=85	=85
2G\	2G\	1r
2A\	2A\	.
=86	=86	=86
1D	1D	2r
.	.	2D\
=87	=87	=87
2.C#/	1r	2.C#/
4C#/	.	4C#/
=88	=88	=88
2D\	1r	2D\
2F\	.	2F\
=89	=89	=89
1E	1r	1E
=90	=90	=90
1AA	1r	1AA
=91	=91	=91
2D\	4r	1D
.	4D\	.
2D\	4A\	.
.	8d\L	.
.	8c\J	.
=92	=92	=92
2GG/	2B\	4r
.	.	4GG/
4D\	2r	4D\
8G\L	.	8G\L
8F\J	.	8F\J
=93	=93	=93
4E\	4r	4E\
4C/	4C/	4C/
4G\	4G\	2r
8c\L	8c\L	.
8B\J	8B\J	.
=94	=94	=94
4A\	4A\	4r
4F\	4F\	4FF/
4C/	4C/	4C/
8F\L	4FF/	8F\L
8E\J	.	8E\J
=95	=95	=95
2.D\	4r	2D\
.	4D\	.
.	4F\	2r
4A\	8A\L	.
.	8G\J	.
=96	=96	=96
4F\	4F\	2r
8B-\L	8B-\L	.
8A\J	8A\J	.
4G\	4G\	4r
4C/	4C/	4C/
=97	=97	=97
2.F\	2FF/	4F\
.	.	8A\L
.	.	8G\J
.	2r	4F\
4D\	.	4D\
=98	=98	=98
2G\	4r	2G\
.	4GG/	.
4D\	4D\	2r
8G\L	8G\L	.
8F\J	8F\J	.
=99	=99	=99
4E\	4E\	4r
2F\	2F\	4F\
.	.	4A\
[4D\	[4D\	8d\L
.	.	8c\J
=100	=100	=100
4D\]	4D\]	2B\
4GG/	4GG/	.
2C/	2C/	4r
.	.	4c\
=101	=101	=101
2AA/	4r	4.A\
.	4A\	.
.	.	8F\
4D\	2d\	4D\
8G\L	.	8G\L
8F\J	.	8F\J
=102	=102	=102
4E\	4r	4E\
4G\	4G\	4G\
4E\	2c\	4E\
4C/	.	4C/
=103	=103	=103
4F\	4r	4F\
8D/L	4D\	8D/L
8C/J	.	8C/J
2BB/	2G\	4BB/
.	.	4GG/
=104	=104	=104
2GG/	4r	2G\
.	4GG/	.
2C/	2C/	4r
.	.	8C/L
.	.	8BB/J
=105	=105	=105
2AA/	4r	4AA/
.	4AA/	8A\L
.	.	8G\J
2D\	2D\	4F#\
.	.	4D\
=106	=106	=106
2BB/	4r	2G\
.	4BB/	.
2E\	2E\	4r
.	.	8E\L
.	.	8D\J
=107	=107	=107
4C/	4r	4C/
4E\	4E\	4E\
2AA/	2A\	4r
.	.	8AA/L
.	.	8GG/J
=108	=108	=108
4F\	4r	4FF/
4D\	4D\	8EE/L
.	.	8DD/J
2AA/	2AA/	2AA/
=109	=109	=109
2D\	2D\	4r
.	.	4D\
2C#/	2C#/	2A\
=110	=110	=110
2D\	2D\	4r
.	.	4D\
2GG/	2GG/	2G\
=111	=111	=111
[1AA	[1AA	4r
.	.	4AA/
.	.	8.A\L
.	.	16G\Jk
.	.	8F\L
.	.	16E\L
.	.	16D\JJ
=112	=112	=112
1AA]	1AA]	4C#/
.	.	4AA/
.	.	2A\
=113	=113	=113
0D	0D	0D
==	==	==
*-	*-	*-
!!!ENC: Craig Stuart Sapp
!!!END: 2004/12/14/
